svg/question_mark.svg

<svg xmlns="http://www.w3.org/2000/svg" viewBox="0 0 32 32" enable-background="new 0 0 32 32"><path d="M 16 4 C 11.670817 4 8 7.0555434 8 11 L 8 13 L 8 14 L 9 14 L 13 14 L 14 14 L 14 13 L 14 11 C 14 10.852628 14.09002 10.637876 14.4375 10.40625 C 14.784979 10.174624 15.351544 10 16 10 C 16.652077 10 17.217134 10.177464 17.5625 10.40625 C 17.907866 10.635036 18 10.837135 18 11 C 18 11.579322 17.810652 11.978859 17.4375 12.4375 C 17.064348 12.896141 16.482053 13.366182 15.84375 13.90625 C 14.567145 14.986386 13 16.495868 13 19 L 13 20 L 14 20 L 18 20 L 19 20 L 19 19 C 19 18.659727 19.12404 18.420769 19.5 18.03125 C 19.87596 17.641731 20.496404 17.17993 21.15625 16.625 C 22.475941 15.515139 24 13.816454 24 11 C 24 7.0886458 20.336253 4 16 4 z M 16 6 C 19.395747 6 22 8.3653542 22 11 C 22 13.144546 21.024059 14.101111 19.84375 15.09375 C 19.253596 15.59007 18.62404 16.074457 18.0625 16.65625 C 17.715454 17.015813 17.446588 17.484151 17.25 18 L 15.3125 18 C 15.626723 16.98873 16.234406 16.217473 17.15625 15.4375 C 17.767947 14.919943 18.435652 14.381141 19 13.6875 C 19.564348 12.993859 20 12.081178 20 11 C 20 10.039865 19.427884 9.2404641 18.6875 8.75 C 17.947116 8.2595359 17.004923 8 16 8 C 14.991456 8 14.050771 8.257876 13.3125 8.75 C 12.574229 9.242124 12 10.042372 12 11 L 12 12 L 10 12 L 10 11 C 10 8.3164566 12.597183 6 16 6 z M 13 22 L 13 23 L 13 27 L 13 28 L 14 28 L 18 28 L 19 28 L 19 27 L 19 23 L 19 22 L 18 22 L 14 22 L 13 22 z M 15 24 L 17 24 L 17 26 L 15 26 L 15 24 z" color="#000" overflow="visible" enable-background="accumulate"/></svg>

<svg xmlns="http://www.w3.org/2000/svg" viewBox="0 0 32 32"><path d="M16 4c-4.33 0-8 3.056-8 7v3h6v-3c0-.147.09-.362.438-.594.347-.23.914-.406 1.562-.406.652 0 1.217.177 1.563.406.345.23.437.43.437.594 0 .58-.19.98-.563 1.438-.373.458-.955.928-1.593 1.468C14.567 14.986 13 16.496 13 19v1h6v-1c0-.34.124-.58.5-.97.376-.388.996-.85 1.656-1.405C22.476 15.515 24 13.815 24 11c0-3.91-3.664-7-8-7zm0 2c3.396 0 6 2.365 6 5 0 2.145-.976 3.1-2.156 4.094-.59.496-1.22.98-1.782 1.562-.347.36-.615.828-.812 1.344h-1.938c.315-1.01.922-1.783 1.844-2.563.612-.517 1.28-1.056 1.844-1.75.564-.693 1-1.606 1-2.687 0-.96-.572-1.76-1.313-2.25C17.948 8.26 17.006 8 16 8c-1.01 0-1.95.258-2.688.75C12.575 9.242 12 10.042 12 11v1h-2v-1c0-2.684 2.597-5 6-5zm-3 16v6h6v-6h-6zm2 2h2v2h-2v-2z"/></svg>
